X:3596
T:Lea Rig, The
O:england
M:4/4
L:1/8
R:Air
K:A
cB|"A"c2 E2 "E"E3 F|"F#m"A3B "A"A2 c2|"E"B3c "A"dcBA|"D"c2 F2 "E"F2cB|"A
"c2 E2 "E"E3 F|"F#m"A3B "A"A2 ag|"D"f3e "E"f>ga>e|"A"c2 A2 A2||e2|"D"fe"
E"fg "A"a3c|"D"dc"A"de "Bm"f2 A2|"Bm"B3c dcBA|"D"c2 F2 F2cB|"A"c2 E2 "E"
E3 F|"F#m"A3B "A"A2 ag|"D"f3e "E"f>ga>e|"A"c2 A2 A2||


